X:237
T:Trip to Carlisle. Roose.0237
B:J.Roose MS, Manchester 1850
Z:Village Music Project 2019 Quinton Cumbes
M:6/8
L:1/8
Q:3/8=100
K:C
G|c2c cde|f2f f3|e2e ege|d2d d3|
c2c cde|f2f f3|ege dBd|c3 c2!fine!:|
|:f|geg fdf|ece dBG|geg fdf|ece d2!D.C.!|]

